assets/img/social/vk.svg

<svg width="30" height="30" viewBox="0 0 30 30" fill="none" xmlns="http://www.w3.org/2000/svg">
<path fill-rule="evenodd" clip-rule="evenodd" d="M28.4004 7.73438C28.609 7.07344 28.4004 6.59297 27.4775 6.59297H24.409C23.635 6.59297 23.2775 7.01367 23.0689 7.46367C23.0689 7.46367 21.4904 11.3074 19.2861 13.7994C18.5713 14.5201 18.2437 14.7604 17.8564 14.7604C17.6479 14.7604 17.3795 14.5201 17.3795 13.8598V7.70332C17.3795 6.92285 17.1416 6.5625 16.4859 6.5625H11.6602C11.1832 6.5625 10.8855 6.92285 10.8855 7.2832C10.8855 8.03379 11.9877 8.21426 12.1066 10.316V14.8828C12.1066 15.8736 11.9309 16.0547 11.5406 16.0547C10.4982 16.0547 7.96641 12.1811 6.44766 7.76719C6.15234 6.89297 5.85234 6.5625 5.07773 6.5625H1.97988C1.08633 6.5625 0.9375 6.98262 0.9375 7.4332C0.9375 8.24414 1.97988 12.3275 5.79258 17.7322C8.32441 21.4236 11.9285 23.4076 15.1752 23.4076C17.1416 23.4076 17.3795 22.957 17.3795 22.2064V19.4139C17.3795 18.5133 17.5582 18.3633 18.184 18.3633C18.6305 18.3633 19.435 18.6029 21.252 20.3748C23.3367 22.4766 23.6941 23.4375 24.8561 23.4375H27.924C28.8176 23.4375 29.2348 22.9869 28.9963 22.1162C28.7285 21.2455 27.7154 19.9846 26.4047 18.4834C25.6898 17.6432 24.6176 16.7121 24.29 16.2615C23.8436 15.6609 23.9625 15.4207 24.29 14.8805C24.2602 14.8805 28.0137 9.53555 28.4004 7.73203" fill="#8ABC36"/>
</svg>

<svg width="30" height="30" fill="none" xmlns="http://www.w3.org/2000/svg"><path fill-rule="evenodd" clip-rule="evenodd" d="M28.4 7.734c.209-.66 0-1.141-.922-1.141h-3.069c-.774 0-1.131.42-1.34.87 0 0-1.579 3.844-3.783 6.336-.715.721-1.042.961-1.43.961-.208 0-.477-.24-.477-.9V7.703c0-.78-.237-1.14-.893-1.14H11.66c-.477 0-.774.36-.774.72 0 .75 1.102.931 1.22 3.033v4.567c0 .99-.175 1.172-.565 1.172-1.043 0-3.575-3.874-5.093-8.288-.296-.874-.596-1.205-1.37-1.205H1.98c-.894 0-1.042.42-1.042.871 0 .811 1.042 4.895 4.855 10.3 2.531 3.69 6.135 5.675 9.382 5.675 1.967 0 2.204-.451 2.204-1.202v-2.792c0-.9.18-1.05.805-1.05.447 0 1.251.239 3.068 2.01 2.085 2.103 2.442 3.064 3.604 3.064h3.068c.894 0 1.31-.451 1.072-1.322-.267-.87-1.28-2.131-2.591-3.633-.715-.84-1.787-1.77-2.115-2.221-.446-.601-.328-.841 0-1.382-.03 0 3.724-5.344 4.11-7.148" fill="#8ABC36"/></svg>
